dist/svg/bold.svg

<svg width="16" height="16" viewBox="0 0 16 16" fill="rgb(34, 34, 34)" xmlns="http://www.w3.org/2000/svg"><title>bold</title><path d="M2.99999 2.00004H8.35299C8.45699 1.99204 8.57899 1.98804 8.70199 1.98804C9.66499 1.98804 10.565 2.25404 11.334 2.71604L11.311 2.70304C11.918 3.14504 12.308 3.85404 12.308 4.65404C12.308 4.70704 12.306 4.75904 12.303 4.81104V4.80404C12.304 4.82704 12.304 4.85504 12.304 4.88204C12.304 5.53304 12.059 6.12604 11.656 6.57404L11.658 6.57204C11.155 7.08204 10.51 7.45004 9.78599 7.61104L9.76099 7.61604C9.80599 7.61404 9.85899 7.61304 9.91199 7.61304C10.761 7.61304 11.541 7.91104 12.152 8.40804L12.145 8.40304C12.673 8.89104 13.002 9.58704 13.002 10.36C13.002 10.409 13.001 10.458 12.998 10.506V10.499C13.001 10.552 13.003 10.614 13.003 10.676C13.003 11.653 12.552 12.524 11.846 13.093L11.84 13.098C11.004 13.671 9.96999 14.013 8.85599 14.013C8.73299 14.013 8.61099 14.009 8.49099 14.001L8.50699 14.002H2.99799V13.137L4.05099 13.041L4.33899 12.76V3.21504L4.05099 2.96204L2.99799 2.87504L2.99999 2.00004ZM6.66399 7.32704C6.70999 7.33304 6.76899 7.33804 6.83799 7.34004C6.90799 7.34337 7.00965 7.34504 7.14299 7.34504C7.21799 7.35204 7.30599 7.35504 7.39499 7.35504C8.06899 7.35504 8.69299 7.14004 9.20199 6.77504L9.19299 6.78104C9.60299 6.38204 9.85699 5.82404 9.85699 5.20804C9.85699 5.14204 9.85399 5.07704 9.84799 5.01304L9.84899 5.02104C9.85299 4.97604 9.85499 4.92304 9.85499 4.86904C9.85499 4.31504 9.61899 3.81604 9.24199 3.46704L9.24099 3.46604C8.78099 3.14404 8.21099 2.95104 7.59499 2.95104C7.51599 2.95104 7.43699 2.95404 7.35899 2.96004L7.36899 2.95904C7.22965 2.95904 7.00932 2.9707 6.70799 2.99404H6.65599L6.66399 7.32704ZM6.65599 12.987L6.71699 12.995C7.07632 13.013 7.34332 13.0217 7.51799 13.021C7.60799 13.029 7.71199 13.033 7.81699 13.033C8.55299 13.033 9.23899 12.814 9.81199 12.439L9.79799 12.448C10.242 12.04 10.52 11.456 10.52 10.808C10.52 10.737 10.517 10.667 10.51 10.598L10.511 10.607C10.515 10.558 10.517 10.502 10.517 10.445C10.517 9.83404 10.257 9.28404 9.84199 8.89804L9.84099 8.89704C9.34599 8.53904 8.72699 8.32404 8.05799 8.32404C7.97799 8.32404 7.89899 8.32704 7.81999 8.33304L7.82999 8.33204C7.56932 8.33204 7.35165 8.33504 7.17699 8.34104C7.00299 8.34604 6.82899 8.35604 6.65599 8.36604V12.987Z" fill="rgb(34, 34, 34)" fill-opacity="1.00"/></svg>

<!-- Generated by Trend Micro Style Portal -->
<svg version="1.1" xmlns="http://www.w3.org/2000/svg" width="16" height="16" viewBox="0 0 16 16">
  <title>bold</title>
  <path fill="rgb(34,34,34)" d="M3 2h5.353c0.104-0.008 0.226-0.012 0.349-0.012 0.963 0 1.863 0.266 2.632 0.728l-0.023-0.013c0.607 0.442 0.997 1.151 0.997 1.951 0 0.053-0.002 0.105-0.005 0.157l0-0.007c0.001 0.023 0.001 0.051 0.001 0.078 0 0.651-0.245 1.244-0.648 1.692l0.002-0.002c-0.503 0.51-1.148 0.878-1.872 1.039l-0.025 0.005c0.045-0.002 0.098-0.003 0.151-0.003 0.849 0 1.629 0.298 2.24 0.795l-0.007-0.005c0.528 0.488 0.857 1.184 0.857 1.957 0 0.049-0.001 0.098-0.004 0.146l0-0.007c0.003 0.053 0.005 0.115 0.005 0.177 0 0.977-0.451 1.848-1.157 2.417l-0.006 0.005c-0.836 0.573-1.87 0.915-2.984 0.915-0.123 0-0.245-0.004-0.365-0.012l0.016 0.001h-5.509v-0.865l1.053-0.096 0.288-0.281v-9.545l-0.288-0.253-1.053-0.087zM6.664 7.327c0.046 0.006 0.105 0.011 0.174 0.013q0.105 0.005 0.305 0.005c0.075 0.007 0.163 0.010 0.252 0.010 0.674 0 1.298-0.215 1.807-0.58l-0.009 0.006c0.41-0.399 0.664-0.957 0.664-1.573 0-0.066-0.003-0.131-0.009-0.195l0.001 0.008c0.004-0.045 0.006-0.098 0.006-0.152 0-0.554-0.236-1.053-0.613-1.402l-0.001-0.001c-0.46-0.322-1.030-0.515-1.646-0.515-0.079 0-0.158 0.003-0.236 0.009l0.010-0.001q-0.209 0-0.661 0.035h-0.052zM6.656 12.987l0.061 0.008q0.539 0.027 0.801 0.026c0.090 0.008 0.194 0.012 0.299 0.012 0.736 0 1.422-0.219 1.995-0.594l-0.014 0.009c0.444-0.408 0.722-0.992 0.722-1.64 0-0.071-0.003-0.141-0.010-0.21l0.001 0.009c0.004-0.049 0.006-0.105 0.006-0.162 0-0.611-0.26-1.161-0.675-1.547l-0.001-0.001c-0.495-0.358-1.114-0.573-1.783-0.573-0.080 0-0.159 0.003-0.238 0.009l0.010-0.001q-0.391 0-0.653 0.009c-0.174 0.005-0.348 0.015-0.521 0.025z"></path>
</svg>
